X:1
T:大提琴练习曲_Book1_P24_No.30
T:大提琴练习曲_Book1_P24_No.30
L:1/8
Q:1/4=80
M:2/4
K:Ab
V:1 bass nm="大提琴" snm="Vc."
V:1
 z2 z2 |!p! (A,,E,) (E,A,,) | (G,,E,) (E,G,,) | (A,,E,) (E,A,,) | (G,,E,) (E,G,,) | (A,,E,) !2!CC | %6
 (!3!DC) E,C | (DC) E,C | (CB,) !2!F,E, | (A,,E,) (E,A,,) | (G,,E,) (E,G,,) | (A,,E,) (E,A,,) | %12
 (G,,E,) (E,G,,) | (A,,E,) !2!CC | (!3!DC) E,C | B,!2!F, (G,F,) | E,4 | (B,E,) !2!CE, | %18
 !3!DE, B,E, | (!1!A,,E,) A,,E, | !2!B,,E, C,E, | (B,E,) !2!CE, | !3!DE, B,E, | (A,,E,) A,,E, | %24
 !2!B,,E, B,,E, | (!2!F,!3!D) F,D | (E,C) E,C | (F,!3!D) F,D | (E,C) E,C | (!1!B,!2!C) !3!DB, | %30
 !2!F,!1!E, (!2!B,,C,) | (A,,4 | A,,)!2!C DC | (B,E,) CE, | DE, B,E, | (A,,E,) A,,E, | B,,E, C,E, | %37
 (B,E,) CE, | DE, B,E, | (A,,E,) A,,E, | B,,E, C,E, | (F,D) F,D | (E,C) E,C | (F,D) F,D | %44
 (E,C) E,C | (B,!2!C) !3!DB, | F,E, (!2!B,,C,) | (A,,4 | A,,2) z2 |] %49

